public/assets/images/icons/grey/pause/perle.svg

<svg width="16" height="16" xmlns="http://www.w3.org/2000/svg" viewBox="0 0 16 16" shape-rendering="geometricPrecision" fill="#6e6e6e"><defs><mask id="a"><rect fill="#fff" width="100%" height="100%"/><path fill="#000" d="M13.135-1h-3.55v7.956H16V-1z"/></mask></defs><path d="M10.585 0h1.55v5.956h-1.55zm2.865 0H15v5.956h-1.55z" fill="#cb1800"/><path mask="url(#a)" d="M8.039 1.977a6 6 0 1 0 0 12 6 6 0 0 0 0-12zm.374 6.606l-1.751-.329-.567 2.068-.708-1.677-1.685 1.377.748-2.044-1.816-.119 1.767-1.215-.884-1.543 1.751.329.568-2.07.706 1.68 1.687-1.378-.75 2.043 1.817.12-1.767 1.212.884 1.546z"/></svg>

<?xml version="1.0"?><!DOCTYPE svg PUBLIC "-//W3C//DTD SVG 1.1//EN" "http://www.w3.org/Graphics/SVG/1.1/DTD/svg11.dtd"><svg width="16px" height="16px" xmlns="http://www.w3.org/2000/svg" viewBox="0 0 16 16" shape-rendering="geometricPrecision" fill="#6e6e6e"><defs><mask id="pause-path"><rect fill="#fff" width="100%" height="100%"/><polygon points="13.135,-1 12.45,-1 9.585,-1 9.585,6.956 12.45,6.956 13.135,6.956 16,6.956 16,-1 " fill="#000"/></mask></defs><g fill="#cb1800"><g><rect x="10.585" width="1.55" height="5.956"/></g><g><rect x="13.45" width="1.55" height="5.956"/></g></g><path mask="url(#pause-path)" d="M8.039,1.977c-3.314,0-6,2.687-6,5.999c0,3.314,2.687,6.001,6,6.001c3.314,0,6-2.687,6-6.001 C14.04,4.663,11.353,1.977,8.039,1.977z M8.413,8.583L6.662,8.254l-0.567,2.068L5.387,8.645l-1.685,1.377L4.45,7.978L2.634,7.859 l1.767-1.215L3.517,5.101L5.268,5.43L5.836,3.36l0.706,1.68l1.687-1.378l-0.75,2.043l1.817,0.12L7.529,7.037L8.413,8.583z"/></svg>
